packages/foundations/assets/icons/functional/images/environment/water_drop_24_filled.svg

<svg xmlns="http://www.w3.org/2000/svg" width="20" height="20" fill="none"><path fill="#1A1C1F" fill-rule="evenodd" d="M9.603 2.053a1.45 1.45 0 0 0-.673.396c-.091.093-.979 1.386-2.006 2.921C5.438 7.591 5.03 8.226 4.81 8.653c-.644 1.256-.894 2.179-.888 3.28.01 1.872.773 3.537 2.145 4.681 1.431 1.194 3.422 1.654 5.329 1.231 2.168-.48 3.837-2.05 4.436-4.171.47-1.664.298-3.153-.561-4.866-.307-.61-.401-.756-2.29-3.578-1.327-1.98-1.823-2.695-1.95-2.809-.398-.357-.944-.498-1.428-.368"/></svg>

<svg width="20" height="20" viewBox="0 0 20 20" fill="none" xmlns="http://www.w3.org/2000/svg"><path d="M9.603 2.053 C 9.345 2.122,9.118 2.256,8.930 2.449 C 8.839 2.542,7.951 3.835,6.924 5.370 C 5.438 7.591,5.030 8.226,4.810 8.653 C 4.166 9.909,3.916 10.832,3.922 11.933 C 3.932 13.805,4.695 15.470,6.067 16.614 C 7.498 17.808,9.489 18.268,11.396 17.845 C 13.564 17.365,15.233 15.795,15.832 13.674 C 16.302 12.010,16.130 10.521,15.271 8.808 C 14.964 8.198,14.870 8.052,12.981 5.230 C 11.654 3.250,11.158 2.535,11.031 2.421 C 10.633 2.064,10.087 1.923,9.603 2.053 " fill="#1A1C1F" stroke="none" fill-rule="evenodd"></path></svg>
